!!!COM: Bach, Johann Sebastian
!!!OPR: Joh. Seb. Bachs vierstimmige Choralgesänge
!!!XEN: Four-part Chorales
!!!OTL: 28. Christus, der ist mein Leben
!!!SCT: BWV 281
!!!SCA: Thematisch-systematisches Verzeichnis der musikalischen Werke Johann Sebastian Bach: Bach-Werke-Verzeichnis (Schmieder)
!!!YOR: Bach Gesellschaft Edition xxxix
!!!ENC: Steven Rasmussen
!!!CDT: 1685/3//-1750/7/28/
!!!OCY: Deutschland
!!!YEC: Copyright (c) 1994, 2000 Center for Computer Assisted Research in the Humanities
!!!YEM: Rights to all derivative editions reserved
!!!YEN: United States of America
**kern	**silbe	**kern	**kern	**kern
*I:[SOPRANO]	*I:[SOPRANO]	*I:[ALTO]	*I:[TENORE]	*I:[BASSO]
*clefG2	*	*clefG2	*clefGv2	*clefF4
*k[b-]	*	*k[b-]	*k[b-]	*k[b-]
*F:	*	*F:	*F:	*F:
*M4/4	*	*M4/4	*M4/4	*M4/4
4f	Chri-	4c	4A	4FF
=1	=1	=1	=1	=1
4a	-stus,	4f	4c	4F
4g	der	4g	4c	4E
4a	ist	4f	4c	4E-
4b-	mein	4f	4d	4D
=2	=2	=2	=2	=2
2cc	Le-	8eL	4G	8CL
.	.	8f	.	8D
.	.	8g	4c	8E
.	.	8eJ	.	8CJ
4a;	-ben	4f;	4c;	4F;
4dd	und	4f	4B-	4BB-
=3	=3	=3	=3	=3
4cc	Ster-	4.f	4c	4AA
4b-	-ben	.	8dL	4GG
.	.	8e	8B-J	.
4a	mein	4.f	4c	8FFL
.	.	.	.	8AAJ
4g	Ge-	.	4c	4C
.	.	8e	.	.
=4	=4	=4	=4	=4
2a;	-winn;	2f;	2c;	2FF;
4r	.	4r	4r	4r
4cc	dem	4a	4f	4F
=5	=5	=5	=5	=5
4dd	tu'	8aL	4f	4BBn
.	.	8gJ	.	.
4ee	ich	8gL	4e	4C
.	.	16ccL	.	.
.	.	16b-JJ	.	.
4ff	mich	4a	8eL	8DL
.	.	.	8dJ	8FJ
4ee	er-	4a	4c	8AL
.	.	.	.	8GJ
=6	=6	=6	=6	=6
2dd	-ge-	4a	4c	8FL
.	.	.	.	8DJ
.	.	4g	4Bn	4G
4cc;	-ben,	4g;	4e;	4C;
4a	mit	4f	4c	4FF
=7	=7	=7	=7	=7
4b-	Freud'	8fL	4B-	4GG
.	.	8eJ	.	.
4a	fahr'	4f	4c	4AA
4g	ich	4f	4d	4BB-
4g	da-	4e	8.cL	4C
.	.	.	16B-Jk	.
=8	=8	=8	=8	=8
2.f;	-hin.	2.c;	2.A;	2.FF;
==|!	==|!	==|!	==|!	==|!
*-	*-	*-	*-	*-
!!!RWG: Key is interpreted using the Humdrum key tool.
!!!END: 1994/05/11
!!!EMD: Converted from MuseData to Humdrum Dec 19, 2000, by Andreas Kornstaedt using muse2kern.
!!!EED: Craig Stuart Sapp
!!!EEV: 2024/03/31
!!!ONB: Some non-unicode characters
